icons/bus-2-line.svg

<svg xmlns="http://www.w3.org/2000/svg" width="24" height="24" fill="none"><g clip-path="url(#a)"><g><path fill="#121212" d="M17 20H7V21C7 21.2652 6.89464 21.5196 6.70711 21.7071C6.51957 21.8946 6.26522 22 6 22H4C3.73478 22 3.48043 21.8946 3.29289 21.7071C3.10536 21.5196 3 21.2652 3 21V12H2V8H3V5C3 4.46957 3.21071 3.96086 3.58579 3.58579C3.96086 3.21071 4.46957 3 5 3H19C19.5304 3 20.0391 3.21071 20.4142 3.58579C20.7893 3.96086 21 4.46957 21 5V8H22V12H21V21C21 21.2652 20.8946 21.5196 20.7071 21.7071C20.5196 21.8946 20.2652 22 20 22H18C17.7348 22 17.4804 21.8946 17.2929 21.7071C17.1054 21.5196 17 21.2652 17 21V20ZM5 5V11H19V5H5ZM19 13H5V18H19V13ZM7.5 17C7.10218 17 6.72064 16.842 6.43934 16.5607C6.15804 16.2794 6 15.8978 6 15.5C6 15.1022 6.15804 14.7206 6.43934 14.4393C6.72064 14.158 7.10218 14 7.5 14C7.89782 14 8.27936 14.158 8.56066 14.4393C8.84196 14.7206 9 15.1022 9 15.5C9 15.8978 8.84196 16.2794 8.56066 16.5607C8.27936 16.842 7.89782 17 7.5 17ZM16.5 17C16.1022 17 15.7206 16.842 15.4393 16.5607C15.158 16.2794 15 15.8978 15 15.5C15 15.1022 15.158 14.7206 15.4393 14.4393C15.7206 14.158 16.1022 14 16.5 14C16.8978 14 17.2794 14.158 17.5607 14.4393C17.842 14.7206 18 15.1022 18 15.5C18 15.8978 17.842 16.2794 17.5607 16.5607C17.2794 16.842 16.8978 17 16.5 17Z"/></g></g><defs><clipPath id="a"><rect width="24" height="24" fill="white"/></clipPath></defs></svg>

<svg width="24" height="24" fill="none" xmlns="http://www.w3.org/2000/svg"><g clip-path="url(#a)"><path d="M17 20H7v1a1 1 0 0 1-1 1H4a1 1 0 0 1-1-1v-9H2V8h1V5a2 2 0 0 1 2-2h14a2 2 0 0 1 2 2v3h1v4h-1v9a1 1 0 0 1-1 1h-2a1 1 0 0 1-1-1v-1ZM5 5v6h14V5H5Zm14 8H5v5h14v-5ZM7.5 17a1.5 1.5 0 1 1 0-3 1.5 1.5 0 0 1 0 3Zm9 0a1.5 1.5 0 1 1 0-3 1.5 1.5 0 0 1 0 3Z" /></g><defs><clipPath id="a"><path fill="#fff" d="M0 0h24v24H0z"/></clipPath></defs></svg>
